packages/icons/src/components/Logo/assets/dark/logstash.svg

<svg width="20" height="20" viewBox="0 0 20 20" fill="none" xmlns="http://www.w3.org/2000/svg">
<path d="M10.4182 10.691H1.14546V0H3.94547C7.54548 0 10.4182 2.90911 10.4182 6.47277V10.691Z" fill="#F3BD19"/>
<path d="M10.4182 20C5.29092 20 1.10907 15.8546 1.10907 10.6909L10.4182 10.691L10.4182 20Z" fill="white"/>
<path d="M10.4182 10.691L18.8909 10.6909V20H10.4182L10.4182 10.691Z" fill="#3EBEB0"/>
<path d="M10.4182 10.691L12.3819 10.6909V20H10.4182L10.4182 10.691Z" fill="#37A595"/>
</svg>

<svg xmlns="http://www.w3.org/2000/svg" width="20" height="20" fill="none" viewBox="0 0 20 20">
    <path fill="#f3bd19" d="M10.418 10.691H1.145V0h2.8c3.6 0 6.473 2.91 6.473 6.473z"/>
    <path fill="#fff" d="M10.418 20c-5.127 0-9.309-4.145-9.309-9.31l9.31.001z"/>
    <path fill="#3ebeb0" d="M10.418 10.691h8.473V20h-8.473z"/>
    <path fill="#37a595" d="M10.418 10.691h1.964V20h-1.964z"/>
</svg>
